public/assets/img/components/logo-valet.svg

<svg xmlns="http://www.w3.org/2000/svg" width="308" height="64" viewBox="0 0 308 64">
  <defs>
    <linearGradient id="a" x1="50%" x2="50%" y1="0%" y2="100%">
      <stop stop-color="#BD74E6" offset="0%"/>
      <stop stop-color="#4B40C8" offset="100%"/>
    </linearGradient>
  </defs>
  <g fill="none" fill-rule="evenodd">
    <path fill="#2E2E2E" d="M107.273438,40.7636719 L118.470703,40.7636719 L118.470703,45 L102,45 L102,19.40625 L107.273438,19.40625 L107.273438,40.7636719 Z M132.181641,45 C131.947264,44.5429665 131.777344,43.9746128 131.671875,43.2949219 C130.4414,44.6660225 128.841807,45.3515625 126.873047,45.3515625 C125.009756,45.3515625 123.465826,44.8125054 122.241211,43.734375 C121.016595,42.6562446 120.404297,41.2968832 120.404297,39.65625 C120.404297,37.6406149 121.15136,36.0937554 122.645508,35.015625 C124.139656,33.9374946 126.298814,33.3925782 129.123047,33.3808594 L131.460938,33.3808594 L131.460938,32.2910156 C131.460938,31.412105 131.235354,30.708987 130.78418,30.1816406 C130.333006,29.6542942 129.621099,29.390625 128.648438,29.390625 C127.792964,29.390625 127.122073,29.5957011 126.635742,30.0058594 C126.149412,30.4160177 125.90625,30.9785121 125.90625,31.6933594 L120.826172,31.6933594 C120.826172,30.5917914 121.166012,29.5722703 121.845703,28.6347656 C122.525394,27.6972609 123.486322,26.9619167 124.728516,26.4287109 C125.970709,25.8955051 127.365227,25.6289062 128.912109,25.6289062 C131.255871,25.6289062 133.116204,26.2177675 134.493164,27.3955078 C135.870124,28.5732481 136.558594,30.228505 136.558594,32.3613281 L136.558594,40.6054688 C136.570313,42.4101653 136.822263,43.775386 137.314453,44.7011719 L137.314453,45 L132.181641,45 Z M127.980469,41.4667969 C128.730472,41.4667969 129.421872,41.2998064 130.054688,40.9658203 C130.687503,40.6318343 131.156248,40.1835966 131.460938,39.6210938 L131.460938,36.3515625 L129.5625,36.3515625 C127.019519,36.3515625 125.666016,37.23046 125.501953,38.9882812 L125.484375,39.2871094 C125.484375,39.919925 125.707029,40.4414042 126.152344,40.8515625 C126.597658,41.2617208 127.207027,41.4667969 127.980469,41.4667969 Z M151.148438,30.7441406 C150.457028,30.6503902 149.847659,30.6035156 149.320312,30.6035156 C147.398428,30.6035156 146.138675,31.2538997 145.541016,32.5546875 L145.541016,45 L140.460938,45 L140.460938,25.9804688 L145.259766,25.9804688 L145.400391,28.2480469 C146.419927,26.5019444 147.832022,25.6289062 149.636719,25.6289062 C150.199222,25.6289062 150.72656,25.7050774 151.21875,25.8574219 L151.148438,30.7441406 Z M164.085938,45 C163.851561,44.5429665 163.681641,43.9746128 163.576172,43.2949219 C162.345697,44.6660225 160.746104,45.3515625 158.777344,45.3515625 C156.914053,45.3515625 155.370123,44.8125054 154.145508,43.734375 C152.920892,42.6562446 152.308594,41.2968832 152.308594,39.65625 C152.308594,37.6406149 153.055657,36.0937554 154.549805,35.015625 C156.043953,33.9374946 158.203111,33.3925782 161.027344,33.3808594 L163.365234,33.3808594 L163.365234,32.2910156 C163.365234,31.412105 163.139651,30.708987 162.688477,30.1816406 C162.237302,29.6542942 161.525395,29.390625 160.552734,29.390625 C159.697261,29.390625 159.02637,29.5957011 158.540039,30.0058594 C158.053709,30.4160177 157.810547,30.9785121 157.810547,31.6933594 L152.730469,31.6933594 C152.730469,30.5917914 153.070309,29.5722703 153.75,28.6347656 C154.429691,27.6972609 155.390619,26.9619167 156.632812,26.4287109 C157.875006,25.8955051 159.269524,25.6289062 160.816406,25.6289062 C163.160168,25.6289062 165.020501,26.2177675 166.397461,27.3955078 C167.774421,28.5732481 168.462891,30.228505 168.462891,32.3613281 L168.462891,40.6054688 C168.474609,42.4101653 168.72656,43.775386 169.21875,44.7011719 L169.21875,45 L164.085938,45 Z M159.884766,41.4667969 C160.634769,41.4667969 161.326169,41.2998064 161.958984,40.9658203 C162.5918,40.6318343 163.060545,40.1835966 163.365234,39.6210938 L163.365234,36.3515625 L161.466797,36.3515625 C158.923815,36.3515625 157.570313,37.23046 157.40625,38.9882812 L157.388672,39.2871094 C157.388672,39.919925 157.611326,40.4414042 158.056641,40.8515625 C158.501955,41.2617208 159.111324,41.4667969 159.884766,41.4667969 Z M179.220703,38.7949219 L182.753906,25.9804688 L188.0625,25.9804688 L181.646484,45 L176.794922,45 L170.378906,25.9804688 L175.6875,25.9804688 L179.220703,38.7949219 Z M198.820312,45.3515625 C196.031236,45.3515625 193.760751,44.4961023 192.008789,42.7851562 C190.256827,41.0742102 189.380859,38.7949361 189.380859,35.9472656 L189.380859,35.4550781 C189.380859,33.5449123 189.749996,31.8369216 190.488281,30.3310547 C191.226566,28.8251878 192.272454,27.6650431 193.625977,26.8505859 C194.979499,26.0361287 196.523429,25.6289062 198.257812,25.6289062 C200.859388,25.6289062 202.907219,26.4492105 204.401367,28.0898438 C205.895515,29.730477 206.642578,32.0566256 206.642578,35.0683594 L206.642578,37.1425781 L194.53125,37.1425781 C194.695313,38.3847718 195.190426,39.3808556 196.016602,40.1308594 C196.842778,40.8808631 197.888666,41.2558594 199.154297,41.2558594 C201.111338,41.2558594 202.640619,40.5468821 203.742188,39.1289062 L206.238281,41.9238281 C205.476559,43.0019585 204.445319,43.8427704 203.144531,44.4462891 C201.843743,45.0498077 200.402352,45.3515625 198.820312,45.3515625 Z M198.240234,29.7421875 C197.232417,29.7421875 196.415042,30.0820279 195.788086,30.7617188 C195.16113,31.4414096 194.759767,32.4140562 194.583984,33.6796875 L201.650391,33.6796875 L201.650391,33.2753906 C201.626953,32.150385 201.322269,31.2802765 200.736328,30.6650391 C200.150388,30.0498016 199.318365,29.7421875 198.240234,29.7421875 Z M214.886719,45 L209.789062,45 L209.789062,18 L214.886719,18 L214.886719,45 Z M236.824219,41.8359375 L236.964844,42.3808594 L237.123047,41.8359375 L245.173828,19.40625 L247.546875,19.40625 L238.019531,45 L235.945312,45 L226.417969,19.40625 L228.773438,19.40625 L236.824219,41.8359375 Z M262.013672,45 C261.802733,44.4023408 261.667969,43.517584 261.609375,42.3457031 C260.87109,43.3066454 259.93067,44.047849 258.788086,44.5693359 C257.645502,45.0908229 256.435553,45.3515625 255.158203,45.3515625 C253.330069,45.3515625 251.850592,44.841802 250.719727,43.8222656 C249.588862,42.8027293 249.023438,41.5136797 249.023438,39.9550781 C249.023438,38.1035064 249.793938,36.6386773 251.334961,35.5605469 C252.875984,34.4824165 255.023424,33.9433594 257.777344,33.9433594 L261.591797,33.9433594 L261.591797,31.78125 C261.591797,30.4218682 261.172856,29.352543 260.334961,28.5732422 C259.497066,27.7939414 258.275399,27.4042969 256.669922,27.4042969 C255.205071,27.4042969 253.992192,27.7792931 253.03125,28.5292969 C252.070308,29.2793006 251.589844,30.1816354 251.589844,31.2363281 L249.480469,31.21875 C249.480469,29.7070237 250.183587,28.3974665 251.589844,27.2900391 C252.996101,26.1826117 254.724599,25.6289062 256.775391,25.6289062 C258.896495,25.6289062 260.56933,26.1591744 261.793945,27.2197266 C263.018561,28.2802787 263.648437,29.7597561 263.683594,31.6582031 L263.683594,40.6582031 C263.683594,42.4980561 263.876951,43.8749954 264.263672,44.7890625 L264.263672,45 L262.013672,45 Z M255.404297,43.4882812 C256.810554,43.4882812 258.067377,43.1484409 259.174805,42.46875 C260.282232,41.7890591 261.087888,40.8808651 261.591797,39.7441406 L261.591797,35.5605469 L257.830078,35.5605469 C255.732411,35.5839845 254.091803,35.9677697 252.908203,36.7119141 C251.724603,37.4560584 251.132812,38.4785091 251.132812,39.7792969 C251.132812,40.8457085 251.528316,41.7304652 252.319336,42.4335938 C253.110356,43.1367223 254.138666,43.4882812 255.404297,43.4882812 Z M271.646484,45 L269.537109,45 L269.537109,18 L271.646484,18 L271.646484,45 Z M284.724609,45.3515625 C283.107414,45.3515625 281.645514,44.953129 280.338867,44.15625 C279.03222,43.359371 278.015629,42.2490306 277.289062,40.8251953 C276.562496,39.4013601 276.199219,37.8046963 276.199219,36.0351562 L276.199219,35.2792969 C276.199219,33.4511627 276.553707,31.8046948 277.262695,30.3398438 C277.971683,28.8749927 278.958978,27.723637 280.224609,26.8857422 C281.490241,26.0478474 282.861321,25.6289062 284.337891,25.6289062 C286.646496,25.6289062 288.477532,26.4169843 289.831055,27.9931641 C291.184577,29.5693438 291.861328,31.7226426 291.861328,34.453125 L291.861328,35.6308594 L278.291016,35.6308594 L278.291016,36.0351562 C278.291016,38.191417 278.909174,39.9872975 280.145508,41.4228516 C281.381842,42.8584056 282.937491,43.5761719 284.8125,43.5761719 C285.937506,43.5761719 286.93066,43.3710958 287.791992,42.9609375 C288.653325,42.5507792 289.435543,41.8945358 290.138672,40.9921875 L291.457031,41.9941406 C289.910149,44.2324331 287.66603,45.3515625 284.724609,45.3515625 Z M284.337891,27.421875 C282.755851,27.421875 281.422857,28.0019473 280.338867,29.1621094 C279.254877,30.3222714 278.595704,31.8808496 278.361328,33.8378906 L289.769531,33.8378906 L289.769531,33.609375 C289.710937,31.7812409 289.189458,30.2929745 288.205078,29.1445312 C287.220698,27.996088 285.931649,27.421875 284.337891,27.421875 Z M299.226562,21.1113281 L299.226562,25.9804688 L303.164062,25.9804688 L303.164062,27.703125 L299.226562,27.703125 L299.226562,40.3769531 C299.226562,41.4316459 299.41699,42.2167943 299.797852,42.7324219 C300.178713,43.2480495 300.814449,43.5058594 301.705078,43.5058594 C302.056642,43.5058594 302.624996,43.4472662 303.410156,43.3300781 L303.498047,45.0527344 C302.947263,45.2519541 302.19727,45.3515625 301.248047,45.3515625 C299.806633,45.3515625 298.757816,44.9326214 298.101562,44.0947266 C297.445309,43.2568317 297.117188,42.0234456 297.117188,40.3945312 L297.117188,27.703125 L293.619141,27.703125 L293.619141,25.9804688 L297.117188,25.9804688 L297.117188,21.1113281 L299.226562,21.1113281 Z"/>
    <path fill="url(#a)" d="M0,11.6709065 C0,6.14315961 3.58493529,4.35073684 7.99845994,7.66088033 L40,31.6620354 L72.0015401,7.66088033 C76.4189675,4.34780974 80,6.14724933 80,11.6709065 L80,51.6531643 C80,57.1809111 76.4150647,58.9733339 72.0015401,55.6631904 L40,31.6620354 L7.99845994,55.6631904 C3.58103249,58.976261 0,57.1768214 0,51.6531643 L0,11.6709065 Z"/>
  </g>
</svg>

<svg xmlns="http://www.w3.org/2000/svg" width="308" height="64" viewBox="0 0 308 64"><defs><linearGradient id="a" x1="50%" x2="50%" y1="0%" y2="100%"><stop stop-color="#BD74E6" offset="0%"/><stop stop-color="#4B40C8" offset="100%"/></linearGradient></defs><g fill="none" fill-rule="evenodd"><path fill="#2E2E2E" d="M107.273 40.764h11.198V45H102V19.406h5.273v21.358zM132.183 45c-.236-.457-.406-1.025-.51-1.705-1.232 1.37-2.83 2.057-4.8 2.057-1.863 0-3.407-.54-4.632-1.618-1.223-1.078-1.836-2.437-1.836-4.078 0-2.015.747-3.562 2.242-4.64 1.494-1.08 3.653-1.623 6.477-1.635h2.338v-1.09c0-.878-.225-1.58-.676-2.108-.45-.528-1.163-.79-2.136-.79-.855 0-1.526.204-2.012.614-.487.41-.73.973-.73 1.687h-5.08c0-1.1.34-2.12 1.02-3.058.68-.938 1.64-1.673 2.883-2.206 1.24-.534 2.635-.8 4.182-.8 2.344 0 4.204.588 5.58 1.766 1.378 1.177 2.067 2.833 2.067 4.965v8.245c.01 1.805.262 3.17.754 4.096v.3h-5.132zm-4.203-3.533c.75 0 1.442-.167 2.075-.5.633-.335 1.1-.783 1.406-1.346v-3.268h-1.898c-2.542 0-3.896.878-4.06 2.636l-.018.3c0 .632.223 1.153.668 1.564.446.41 1.055.615 1.828.615zm23.168-10.723c-.69-.094-1.3-.14-1.828-.14-1.922 0-3.18.65-3.78 1.95V45h-5.08V25.98h4.8l.14 2.268c1.02-1.746 2.432-2.62 4.237-2.62.562 0 1.09.077 1.582.23l-.072 4.886zM164.086 45c-.234-.457-.404-1.025-.51-1.705-1.23 1.37-2.83 2.057-4.8 2.057-1.862 0-3.406-.54-4.63-1.618-1.225-1.078-1.837-2.437-1.837-4.078 0-2.015.746-3.562 2.24-4.64 1.494-1.08 3.653-1.623 6.477-1.635h2.338v-1.09c0-.878-.225-1.58-.677-2.108-.45-.528-1.163-.79-2.135-.79-.856 0-1.527.204-2.013.614-.486.41-.73.973-.73 1.687h-5.08c0-1.1.34-2.12 1.02-3.058.68-.938 1.64-1.673 2.883-2.206 1.242-.534 2.637-.8 4.183-.8 2.344 0 4.205.588 5.58 1.766 1.378 1.177 2.067 2.833 2.067 4.965v8.245c.012 1.805.264 3.17.756 4.096v.3h-5.134zm-4.2-3.533c.75 0 1.44-.167 2.073-.5.632-.335 1.1-.783 1.405-1.346v-3.268h-1.898c-2.543 0-3.897.878-4.06 2.636l-.018.3c0 .632.22 1.153.667 1.564.445.41 1.054.615 1.828.615zm19.335-2.672l3.534-12.815h5.31L181.644 45h-4.85l-6.417-19.02h5.308l3.533 12.815zm19.6 6.557c-2.79 0-5.06-.856-6.81-2.567-1.753-1.71-2.63-3.99-2.63-6.838v-.492c0-1.91.37-3.618 1.108-5.124.74-1.505 1.784-2.665 3.138-3.48 1.353-.814 2.897-1.22 4.632-1.22 2.6 0 4.65.82 6.143 2.46 1.496 1.64 2.243 3.967 2.243 6.978v2.075H194.53c.165 1.242.66 2.238 1.487 2.988.826.75 1.872 1.126 3.137 1.126 1.957 0 3.487-.71 4.588-2.127l2.496 2.794c-.76 1.078-1.793 1.92-3.093 2.522-1.3.604-2.743.906-4.325.906zm-.58-15.61c-1.008 0-1.825.34-2.452 1.02-.627.68-1.028 1.652-1.204 2.918h7.066v-.405c-.023-1.125-.328-1.995-.914-2.61-.586-.615-1.418-.923-2.496-.923zM214.887 45h-5.098V18h5.097v27zm21.937-3.164l.14.545.16-.544 8.05-22.43h2.373L238.02 45h-2.075l-9.527-25.594h2.355l8.05 22.43zM262.014 45c-.21-.598-.346-1.482-.405-2.654-.74.96-1.68 1.702-2.822 2.223-1.142.52-2.352.782-3.63.782-1.828 0-3.307-.51-4.438-1.53-1.13-1.02-1.697-2.308-1.697-3.867 0-1.85.77-3.316 2.312-4.394 1.54-1.078 3.688-1.617 6.442-1.617h3.815V31.78c0-1.358-.42-2.427-1.257-3.207-.838-.78-2.06-1.17-3.665-1.17-1.465 0-2.678.376-3.64 1.126-.96.75-1.44 1.652-1.44 2.706l-2.11-.017c0-1.513.704-2.823 2.11-3.93 1.406-1.107 3.135-1.66 5.185-1.66 2.12 0 3.794.53 5.02 1.59 1.224 1.06 1.853 2.54 1.89 4.438v9c0 1.84.192 3.217.58 4.13V45h-2.25zm-6.61-1.512c1.407 0 2.663-.34 3.77-1.02 1.108-.68 1.914-1.587 2.418-2.724V35.56h-3.762c-2.098.024-3.738.408-4.922 1.152-1.183.744-1.775 1.767-1.775 3.067 0 1.066.395 1.95 1.186 2.654.79.703 1.82 1.054 3.084 1.054zM271.646 45h-2.11V18h2.11v27zm13.08.352c-1.62 0-3.08-.4-4.387-1.196-1.308-.797-2.324-1.907-3.05-3.33-.728-1.425-1.09-3.02-1.09-4.79v-.757c0-1.83.354-3.475 1.063-4.94.71-1.465 1.696-2.616 2.962-3.454 1.265-.838 2.636-1.257 4.113-1.257 2.308 0 4.14.787 5.493 2.363 1.355 1.576 2.03 3.73 2.03 6.46v1.178h-13.57v.405c0 2.156.62 3.952 1.856 5.388 1.236 1.435 2.79 2.153 4.666 2.153 1.126 0 2.12-.205 2.98-.615.86-.41 1.644-1.065 2.347-1.968l1.317 1.002c-1.547 2.238-3.79 3.358-6.732 3.358zm-.388-17.93c-1.582 0-2.915.58-4 1.74-1.083 1.16-1.742 2.72-1.977 4.676h11.41v-.23c-.06-1.827-.58-3.315-1.565-4.463-.984-1.15-2.273-1.723-3.867-1.723zm14.89-6.31v4.868h3.936v1.723h-3.937v12.674c0 1.055.19 1.84.57 2.355.382.516 1.017.774 1.908.774.352 0 .92-.06 1.705-.176l.088 1.723c-.55.2-1.3.3-2.25.3-1.44 0-2.49-.42-3.146-1.258-.657-.838-.985-2.072-.985-3.7V27.703h-3.498V25.98h3.497v-4.87h2.11z"/><path fill="url(#a)" d="M0 11.67c0-5.527 3.585-7.32 7.998-4.01L40 31.663l32.002-24C76.42 4.347 80 6.146 80 11.67v39.98c0 5.53-3.585 7.32-7.998 4.01L40 31.663l-32.002 24C3.58 58.977 0 57.178 0 51.653v-39.98z"/></g></svg>
